static/img/kroki/2b915bf91752ee85abaa7c747e49b782.svg

<?xml version="1.0" encoding="us-ascii" standalone="no"?><svg xmlns="http://www.w3.org/2000/svg" xmlns:xlink="http://www.w3.org/1999/xlink" contentStyleType="text/css" height="1111px" preserveAspectRatio="none" style="width:456px;height:1111px;" version="1.1" viewBox="0 0 456 1111" width="456px" zoomAndPan="magnify"><defs/><g><!--class gcp_deprecation_status--><g id="elem_gcp_deprecation_status"><rect codeLine="22" fill="#3D176E" height="179.2734" id="gcp_deprecation_status" rx="2.5" ry="2.5" style="stroke:#000D19;stroke-width:0.5;" width="237" x="116.5" y="925.71"/><ellipse cx="131.5" cy="945.6045" fill="#ADD1B2" rx="11" ry="11" style="stroke:#181818;stroke-width:1.0;"/><path d="M134.4688,951.2452 Q133.8906,951.542 133.25,951.6827 Q132.6094,951.8389 131.9063,951.8389 Q129.4063,951.8389 128.0781,950.1983 Q126.7656,948.542 126.7656,945.417 Q126.7656,942.292 128.0781,940.6358 Q129.4063,938.9795 131.9063,938.9795 Q132.6094,938.9795 133.25,939.1358 Q133.9063,939.292 134.4688,939.5889 L134.4688,942.3077 Q133.8438,941.7295 133.25,941.4639 Q132.6563,941.1827 132.0313,941.1827 Q130.6875,941.1827 130,942.2608 Q129.3125,943.3233 129.3125,945.417 Q129.3125,947.5108 130,948.5889 Q130.6875,949.6514 132.0313,949.6514 Q132.6563,949.6514 133.25,949.3858 Q133.8438,949.1045 134.4688,948.5264 L134.4688,951.2452 Z " fill="#000000"/><text fill="#D9B8FF" font-family="Helvetica" font-size="17" lengthAdjust="spacing" textLength="195" x="150.5" y="951.4898">gcp_deprecation_status</text><line style="stroke:#000D19;stroke-width:0.5;" x1="117.5" x2="352.5" y1="965.4991" y2="965.4991"/><text fill="#D9B8FF" font-family="sans-serif" font-size="14" font-weight="bold" lengthAdjust="spacing" textLength="60" x="127.5" y="987.4942">deleted</text><text fill="#D9B8FF" font-family="sans-serif" font-size="14" lengthAdjust="spacing" textLength="48" x="187.5" y="987.4942">: string</text><text fill="#D9B8FF" font-family="sans-serif" font-size="14" font-weight="bold" lengthAdjust="spacing" textLength="91" x="127.5" y="1013.7911">deprecated</text><text fill="#D9B8FF" font-family="sans-serif" font-size="14" lengthAdjust="spacing" textLength="48" x="218.5" y="1013.7911">: string</text><text fill="#D9B8FF" font-family="sans-serif" font-size="14" font-weight="bold" lengthAdjust="spacing" textLength="69" x="127.5" y="1040.0879">obsolete</text><text fill="#D9B8FF" font-family="sans-serif" font-size="14" lengthAdjust="spacing" textLength="48" x="196.5" y="1040.0879">: string</text><text fill="#D9B8FF" font-family="sans-serif" font-size="14" font-weight="bold" lengthAdjust="spacing" textLength="99" x="127.5" y="1066.3848">replacement</text><text fill="#D9B8FF" font-family="sans-serif" font-size="14" lengthAdjust="spacing" textLength="48" x="226.5" y="1066.3848">: string</text><text fill="#D9B8FF" font-family="sans-serif" font-size="14" font-weight="bold" lengthAdjust="spacing" textLength="40" x="127.5" y="1092.6817">state</text><text fill="#D9B8FF" font-family="sans-serif" font-size="14" lengthAdjust="spacing" textLength="48" x="167.5" y="1092.6817">: string</text></g><!--class gcp_resource--><g id="elem_gcp_resource"><rect codeLine="29" fill="#3D176E" height="152.9766" id="gcp_resource" rx="2.5" ry="2.5" style="stroke:#000D19;stroke-width:0.5;" width="348" x="7" y="438.75"/><ellipse cx="117.75" cy="458.6445" fill="#ADD1B2" rx="11" ry="11" style="stroke:#181818;stroke-width:1.0;"/><path d="M120.7188,464.2852 Q120.1406,464.582 119.5,464.7227 Q118.8594,464.8789 118.1563,464.8789 Q115.6563,464.8789 114.3281,463.2383 Q113.0156,461.582 113.0156,458.457 Q113.0156,455.332 114.3281,453.6758 Q115.6563,452.0195 118.1563,452.0195 Q118.8594,452.0195 119.5,452.1758 Q120.1563,452.332 120.7188,452.6289 L120.7188,455.3477 Q120.0938,454.7695 119.5,454.5039 Q118.9063,454.2227 118.2813,454.2227 Q116.9375,454.2227 116.25,455.3008 Q115.5625,456.3633 115.5625,458.457 Q115.5625,460.5508 116.25,461.6289 Q116.9375,462.6914 118.2813,462.6914 Q118.9063,462.6914 119.5,462.4258 Q120.0938,462.1445 120.7188,461.5664 L120.7188,464.2852 Z " fill="#000000"/><text fill="#D9B8FF" font-family="Helvetica" font-size="17" lengthAdjust="spacing" textLength="108" x="143.25" y="464.5298">gcp_resource</text><line style="stroke:#000D19;stroke-width:0.5;" x1="8" x2="354" y1="478.5391" y2="478.5391"/><text fill="#D9B8FF" font-family="sans-serif" font-size="14" font-weight="bold" lengthAdjust="spacing" textLength="151" x="18" y="500.5342">deprecation_status</text><text fill="#D9B8FF" font-family="sans-serif" font-size="14" lengthAdjust="spacing" textLength="175" x="169" y="500.5342">: gcp_deprecation_status</text><text fill="#D9B8FF" font-family="sans-serif" font-size="14" font-weight="bold" lengthAdjust="spacing" textLength="89" x="18" y="526.8311">description</text><text fill="#D9B8FF" font-family="sans-serif" font-size="14" lengthAdjust="spacing" textLength="48" x="107" y="526.8311">: string</text><text fill="#D9B8FF" font-family="sans-serif" font-size="14" font-weight="bold" lengthAdjust="spacing" textLength="128" x="18" y="553.1279">label_fingerprint</text><text fill="#D9B8FF" font-family="sans-serif" font-size="14" lengthAdjust="spacing" textLength="48" x="146" y="553.1279">: string</text><text fill="#D9B8FF" font-family="sans-serif" font-size="14" font-weight="bold" lengthAdjust="spacing" textLength="27" x="18" y="579.4248">link</text><text fill="#D9B8FF" font-family="sans-serif" font-size="14" lengthAdjust="spacing" textLength="48" x="45" y="579.4248">: string</text></g><!--class gcp_target_vpn_gateway--><g id="elem_gcp_target_vpn_gateway"><rect codeLine="35" fill="#3D176E" height="152.9766" id="gcp_target_vpn_gateway" rx="2.5" ry="2.5" style="stroke:#000D19;stroke-width:0.5;" width="251" x="198.5" y="712.73"/><ellipse cx="213.5" cy="732.6245" fill="#ADD1B2" rx="11" ry="11" style="stroke:#181818;stroke-width:1.0;"/><path d="M216.4688,738.2652 Q215.8906,738.562 215.25,738.7027 Q214.6094,738.8589 213.9063,738.8589 Q211.4063,738.8589 210.0781,737.2183 Q208.7656,735.562 208.7656,732.437 Q208.7656,729.312 210.0781,727.6558 Q211.4063,725.9995 213.9063,725.9995 Q214.6094,725.9995 215.25,726.1558 Q215.9063,726.312 216.4688,726.6089 L216.4688,729.3277 Q215.8438,728.7495 215.25,728.4839 Q214.6563,728.2027 214.0313,728.2027 Q212.6875,728.2027 212,729.2808 Q211.3125,730.3433 211.3125,732.437 Q211.3125,734.5308 212,735.6089 Q212.6875,736.6714 214.0313,736.6714 Q214.6563,736.6714 215.25,736.4058 Q215.8438,736.1245 216.4688,735.5464 L216.4688,738.2652 Z " fill="#000000"/><text fill="#D9B8FF" font-family="Helvetica" font-size="17" lengthAdjust="spacing" textLength="209" x="232.5" y="738.5098">gcp_target_vpn_gateway</text><line style="stroke:#000D19;stroke-width:0.5;" x1="199.5" x2="448.5" y1="752.5191" y2="752.5191"/><text fill="#D9B8FF" font-family="sans-serif" font-size="14" font-weight="bold" lengthAdjust="spacing" textLength="134" x="209.5" y="774.5142">forwarding_rules</text><text fill="#D9B8FF" font-family="sans-serif" font-size="14" lengthAdjust="spacing" textLength="58" x="343.5" y="774.5142">: string[]</text><text fill="#D9B8FF" font-family="sans-serif" font-size="14" font-weight="bold" lengthAdjust="spacing" textLength="66" x="209.5" y="800.8111">network</text><text fill="#D9B8FF" font-family="sans-serif" font-size="14" lengthAdjust="spacing" textLength="48" x="275.5" y="800.8111">: string</text><text fill="#D9B8FF" font-family="sans-serif" font-size="14" font-weight="bold" lengthAdjust="spacing" textLength="49" x="209.5" y="827.1079">status</text><text fill="#D9B8FF" font-family="sans-serif" font-size="14" lengthAdjust="spacing" textLength="48" x="258.5" y="827.1079">: string</text><text fill="#D9B8FF" font-family="sans-serif" font-size="14" font-weight="bold" lengthAdjust="spacing" textLength="59" x="209.5" y="853.4048">tunnels</text><text fill="#D9B8FF" font-family="sans-serif" font-size="14" lengthAdjust="spacing" textLength="58" x="268.5" y="853.4048">: string[]</text></g><!--class resource--><g id="elem_resource"><rect codeLine="41" fill="#3D176E" height="310.7578" id="resource" rx="2.5" ry="2.5" style="stroke:#000D19;stroke-width:0.5;" width="227" x="67.5" y="7"/><ellipse cx="136.25" cy="26.8945" fill="#ADD1B2" rx="11" ry="11" style="stroke:#181818;stroke-width:1.0;"/><path d="M139.2188,32.5352 Q138.6406,32.832 138,32.9727 Q137.3594,33.1289 136.6563,33.1289 Q134.1563,33.1289 132.8281,31.4883 Q131.5156,29.832 131.5156,26.707 Q131.5156,23.582 132.8281,21.9258 Q134.1563,20.2695 136.6563,20.2695 Q137.3594,20.2695 138,20.4258 Q138.6563,20.582 139.2188,20.8789 L139.2188,23.5977 Q138.5938,23.0195 138,22.7539 Q137.4063,22.4727 136.7813,22.4727 Q135.4375,22.4727 134.75,23.5508 Q134.0625,24.6133 134.0625,26.707 Q134.0625,28.8008 134.75,29.8789 Q135.4375,30.9414 136.7813,30.9414 Q137.4063,30.9414 138,30.6758 Q138.5938,30.3945 139.2188,29.8164 L139.2188,32.5352 Z " fill="#000000"/><text fill="#D9B8FF" font-family="Helvetica" font-size="17" lengthAdjust="spacing" textLength="71" x="161.75" y="32.7798">resource</text><line style="stroke:#000D19;stroke-width:0.5;" x1="68.5" x2="293.5" y1="46.7891" y2="46.7891"/><text fill="#D9B8FF" font-family="sans-serif" font-size="14" font-weight="bold" lengthAdjust="spacing" textLength="29" x="78.5" y="68.7842">age</text><text fill="#D9B8FF" font-family="sans-serif" font-size="14" lengthAdjust="spacing" textLength="66" x="107.5" y="68.7842">: duration</text><text fill="#D9B8FF" font-family="sans-serif" font-size="14" font-weight="bold" lengthAdjust="spacing" textLength="43" x="78.5" y="95.0811">atime</text><text fill="#D9B8FF" font-family="sans-serif" font-size="14" lengthAdjust="spacing" textLength="70" x="121.5" y="95.0811">: datetime</text><text fill="#D9B8FF" font-family="sans-serif" font-size="14" font-weight="bold" lengthAdjust="spacing" textLength="43" x="78.5" y="121.3779">ctime</text><text fill="#D9B8FF" font-family="sans-serif" font-size="14" lengthAdjust="spacing" textLength="70" x="121.5" y="121.3779">: datetime</text><text fill="#D9B8FF" font-family="sans-serif" font-size="14" font-weight="bold" lengthAdjust="spacing" textLength="14" x="78.5" y="147.6748">id</text><text fill="#D9B8FF" font-family="sans-serif" font-size="14" lengthAdjust="spacing" textLength="48" x="92.5" y="147.6748">: string</text><text fill="#D9B8FF" font-family="sans-serif" font-size="14" font-weight="bold" lengthAdjust="spacing" textLength="33" x="78.5" y="173.9717">kind</text><text fill="#D9B8FF" font-family="sans-serif" font-size="14" lengthAdjust="spacing" textLength="48" x="111.5" y="173.9717">: string</text><text fill="#D9B8FF" font-family="sans-serif" font-size="14" font-weight="bold" lengthAdjust="spacing" textLength="90" x="78.5" y="200.2686">last_access</text><text fill="#D9B8FF" font-family="sans-serif" font-size="14" lengthAdjust="spacing" textLength="66" x="168.5" y="200.2686">: duration</text><text fill="#D9B8FF" font-family="sans-serif" font-size="14" font-weight="bold" lengthAdjust="spacing" textLength="90" x="78.5" y="226.5654">last_update</text><text fill="#D9B8FF" font-family="sans-serif" font-size="14" lengthAdjust="spacing" textLength="66" x="168.5" y="226.5654">: duration</text><text fill="#D9B8FF" font-family="sans-serif" font-size="14" font-weight="bold" lengthAdjust="spacing" textLength="48" x="78.5" y="252.8623">mtime</text><text fill="#D9B8FF" font-family="sans-serif" font-size="14" lengthAdjust="spacing" textLength="70" x="126.5" y="252.8623">: datetime</text><text fill="#D9B8FF" font-family="sans-serif" font-size="14" font-weight="bold" lengthAdjust="spacing" textLength="43" x="78.5" y="279.1592">name</text><text fill="#D9B8FF" font-family="sans-serif" font-size="14" lengthAdjust="spacing" textLength="48" x="121.5" y="279.1592">: string</text><text fill="#D9B8FF" font-family="sans-serif" font-size="14" font-weight="bold" lengthAdjust="spacing" textLength="34" x="78.5" y="305.4561">tags</text><text fill="#D9B8FF" font-family="sans-serif" font-size="14" lengthAdjust="spacing" textLength="171" x="112.5" y="305.4561">: dictionary[string, string]</text></g><!--link gcp_resource to gcp_deprecation_status--><g id="link_gcp_resource_gcp_deprecation_status"><path codeLine="53" d="M173.46,592.23 C168.17,663.46 164.62,772.64 181,865.71 C184.15,883.59 189.28,902.16 195.15,919.87 " fill="none" id="gcp_resource-to-gcp_deprecation_status" style="stroke:#FFAF37;stroke-width:2.0;"/><polygon fill="#FFAF37" points="197,924.33,197.9309,914.5252,195.4103,919.5895,190.3461,917.0688,197,924.33" style="stroke:#FFAF37;stroke-width:2.0;"/></g><!--reverse link resource to gcp_resource--><g id="link_resource_gcp_resource"><path codeLine="54" d="M181,338.65 C181,373.73 181,408.82 181,438.31 " fill="none" id="resource-backto-gcp_resource" style="stroke:#FFAF37;stroke-width:2.0;"/><polygon fill="none" points="174,339.04,181,319.04,188,339.04,174,339.04" style="stroke:#FFAF37;stroke-width:2.0;"/></g><!--link gcp_target_vpn_gateway to gcp_deprecation_status--><g id="link_gcp_target_vpn_gateway_gcp_deprecation_status"><path codeLine="55" d="M293.87,866.1 C287.01,883.36 279.65,901.91 272.53,919.84 " fill="none" id="gcp_target_vpn_gateway-to-gcp_deprecation_status" style="stroke:#FFAF37;stroke-width:2.0;"/><polygon fill="#FFAF37" points="270.33,924.38,277.3682,917.4906,272.1746,919.7327,269.9325,914.5392,270.33,924.38" style="stroke:#FFAF37;stroke-width:2.0;"/></g><!--reverse link gcp_resource to gcp_target_vpn_gateway--><g id="link_gcp_resource_gcp_target_vpn_gateway"><path codeLine="56" d="M230.6,610.58 C248.1,643.87 267.54,680.84 284.13,712.39 " fill="none" id="gcp_resource-backto-gcp_target_vpn_gateway" style="stroke:#FFAF37;stroke-width:2.0;"/><polygon fill="none" points="223.95,613.96,220.83,593,236.34,607.45,223.95,613.96" style="stroke:#FFAF37;stroke-width:2.0;"/></g><!--SRC=[XPHDRzim38Rl-HK6UWjc85cnfHc60Ls0ORiKmxfRCHYqH3k2PScWw0RPnt-VPAUjPSVfBNxva7n92jahYGdM3H-J6kiSoIrSfKm317LoIsGFEwij9LT50SNrPXpyOWs_2jn1ZSbNr8_8Ii2O-BbNeZBeNF9s4FeCeYh9jaRsvPd0E1z2mmDgfy6vMsPIUSiuC2Et-KrHZCbnqQjhkTwynmbcIIATaDLg9TVRCV9ggujpFnFtwZScw-7IxYpZnEQaHKTTT1c8WSd9e4_nMO_VGKfbokJTGFlHUoA35EdtUv3s4EW2j1ksSOo4beyDxYPJuVP65fkpyBSvM8JD9QLeCeaDeG1MrcIEWLkN_5aibn8rCihbyeClHzvIf_NeIBQvim6EHC96Wy3QlxD83os6vB-15K9dMn9uCZ3s5RBEE-vm9qWrGOpwQSXHPuN_G6gy5hlHobGpPXYeHCuU6vELtl81Zfsjmj81A5mqerQZUyb- -EN31lbWgPgCtBf8ujOOr77oK_De2r1sov8jTVC6XLNTQzvL-EqrSKPJyP7yuv2ZnJZEG0Z_Xp7gq4NQHfuEDOZKP_eOgEFBCvHzHIL26j3neO-zEJ5XrEZSQVffxh3FpCU_QPf6hsGnSwKBrQAkBnMdHVu3]--></g></svg>

<svg xmlns="http://www.w3.org/2000/svg" width="456" height="1111" preserveAspectRatio="none" style="width:456px;height:1111px"><rect width="237" height="179.273" x="116.5" y="925.71" fill="#3D176E" rx="2.5" ry="2.5" style="stroke:#000d19;stroke-width:.5"/><circle cx="131.5" cy="945.605" r="11" fill="#ADD1B2" style="stroke:#181818;stroke-width:1"/><path d="M134.469 951.245q-.578.297-1.219.438-.64.156-1.344.156-2.5 0-3.828-1.64-1.312-1.657-1.312-4.782t1.312-4.781q1.328-1.656 3.828-1.656.703 0 1.344.156.656.156 1.219.453v2.719q-.625-.578-1.219-.844-.594-.281-1.219-.281-1.344 0-2.031 1.078-.688 1.062-.688 3.156 0 2.094.688 3.172.688 1.062 2.031 1.062.625 0 1.219-.265.594-.281 1.219-.86v2.72Z"/><text x="150.5" y="951.49" fill="#D9B8FF" font-family="Helvetica" font-size="17" textLength="195">gcp_deprecation_status</text><path d="M117.5 965.499h235" style="stroke:#000d19;stroke-width:.5"/><text x="127.5" y="987.494" fill="#D9B8FF" font-family="sans-serif" font-size="14" font-weight="bold" textLength="60">deleted</text><text x="187.5" y="987.494" fill="#D9B8FF" font-family="sans-serif" font-size="14" textLength="48">: string</text><text x="127.5" y="1013.791" fill="#D9B8FF" font-family="sans-serif" font-size="14" font-weight="bold" textLength="91">deprecated</text><text x="218.5" y="1013.791" fill="#D9B8FF" font-family="sans-serif" font-size="14" textLength="48">: string</text><text x="127.5" y="1040.088" fill="#D9B8FF" font-family="sans-serif" font-size="14" font-weight="bold" textLength="69">obsolete</text><text x="196.5" y="1040.088" fill="#D9B8FF" font-family="sans-serif" font-size="14" textLength="48">: string</text><text x="127.5" y="1066.385" fill="#D9B8FF" font-family="sans-serif" font-size="14" font-weight="bold" textLength="99">replacement</text><text x="226.5" y="1066.385" fill="#D9B8FF" font-family="sans-serif" font-size="14" textLength="48">: string</text><text x="127.5" y="1092.682" fill="#D9B8FF" font-family="sans-serif" font-size="14" font-weight="bold" textLength="40">state</text><text x="167.5" y="1092.682" fill="#D9B8FF" font-family="sans-serif" font-size="14" textLength="48">: string</text><rect width="348" height="152.977" x="7" y="438.75" fill="#3D176E" rx="2.5" ry="2.5" style="stroke:#000d19;stroke-width:.5"/><circle cx="117.75" cy="458.644" r="11" fill="#ADD1B2" style="stroke:#181818;stroke-width:1"/><path d="M120.719 464.285q-.578.297-1.219.438-.64.156-1.344.156-2.5 0-3.828-1.64-1.312-1.657-1.312-4.782t1.312-4.781q1.328-1.656 3.828-1.656.703 0 1.344.156.656.156 1.219.453v2.719q-.625-.579-1.219-.844-.594-.281-1.219-.281-1.344 0-2.031 1.078-.688 1.062-.688 3.156 0 2.094.688 3.172.688 1.062 2.031 1.062.625 0 1.219-.265.594-.281 1.219-.86v2.72Z"/><text x="143.25" y="464.53" fill="#D9B8FF" font-family="Helvetica" font-size="17" textLength="108">gcp_resource</text><path d="M8 478.539h346" style="stroke:#000d19;stroke-width:.5"/><text x="18" y="500.534" fill="#D9B8FF" font-family="sans-serif" font-size="14" font-weight="bold" textLength="151">deprecation_status</text><text x="169" y="500.534" fill="#D9B8FF" font-family="sans-serif" font-size="14" textLength="175">: gcp_deprecation_status</text><text x="18" y="526.831" fill="#D9B8FF" font-family="sans-serif" font-size="14" font-weight="bold" textLength="89">description</text><text x="107" y="526.831" fill="#D9B8FF" font-family="sans-serif" font-size="14" textLength="48">: string</text><text x="18" y="553.128" fill="#D9B8FF" font-family="sans-serif" font-size="14" font-weight="bold" textLength="128">label_fingerprint</text><text x="146" y="553.128" fill="#D9B8FF" font-family="sans-serif" font-size="14" textLength="48">: string</text><text x="18" y="579.425" fill="#D9B8FF" font-family="sans-serif" font-size="14" font-weight="bold" textLength="27">link</text><text x="45" y="579.425" fill="#D9B8FF" font-family="sans-serif" font-size="14" textLength="48">: string</text><rect width="251" height="152.977" x="198.5" y="712.73" fill="#3D176E" rx="2.5" ry="2.5" style="stroke:#000d19;stroke-width:.5"/><circle cx="213.5" cy="732.625" r="11" fill="#ADD1B2" style="stroke:#181818;stroke-width:1"/><path d="M216.469 738.265q-.578.297-1.219.438-.64.156-1.344.156-2.5 0-3.828-1.64-1.312-1.657-1.312-4.782t1.312-4.781q1.328-1.656 3.828-1.656.703 0 1.344.156.656.156 1.219.453v2.719q-.625-.578-1.219-.844-.594-.281-1.219-.281-1.344 0-2.031 1.078-.688 1.062-.688 3.156 0 2.094.688 3.172.688 1.062 2.031 1.062.625 0 1.219-.265.594-.281 1.219-.86v2.72Z"/><text x="232.5" y="738.51" fill="#D9B8FF" font-family="Helvetica" font-size="17" textLength="209">gcp_target_vpn_gateway</text><path d="M199.5 752.519h249" style="stroke:#000d19;stroke-width:.5"/><text x="209.5" y="774.514" fill="#D9B8FF" font-family="sans-serif" font-size="14" font-weight="bold" textLength="134">forwarding_rules</text><text x="343.5" y="774.514" fill="#D9B8FF" font-family="sans-serif" font-size="14" textLength="58">: string[]</text><text x="209.5" y="800.811" fill="#D9B8FF" font-family="sans-serif" font-size="14" font-weight="bold" textLength="66">network</text><text x="275.5" y="800.811" fill="#D9B8FF" font-family="sans-serif" font-size="14" textLength="48">: string</text><text x="209.5" y="827.108" fill="#D9B8FF" font-family="sans-serif" font-size="14" font-weight="bold" textLength="49">status</text><text x="258.5" y="827.108" fill="#D9B8FF" font-family="sans-serif" font-size="14" textLength="48">: string</text><text x="209.5" y="853.405" fill="#D9B8FF" font-family="sans-serif" font-size="14" font-weight="bold" textLength="59">tunnels</text><text x="268.5" y="853.405" fill="#D9B8FF" font-family="sans-serif" font-size="14" textLength="58">: string[]</text><rect width="227" height="310.758" x="67.5" y="7" fill="#3D176E" rx="2.5" ry="2.5" style="stroke:#000d19;stroke-width:.5"/><circle cx="136.25" cy="26.895" r="11" fill="#ADD1B2" style="stroke:#181818;stroke-width:1"/><path d="M139.219 32.535q-.578.297-1.219.438-.64.156-1.344.156-2.5 0-3.828-1.64-1.312-1.657-1.312-4.782t1.312-4.781q1.328-1.656 3.828-1.656.703 0 1.344.156.656.156 1.219.453v2.719q-.625-.578-1.219-.844-.594-.281-1.219-.281-1.344 0-2.031 1.078-.688 1.062-.688 3.156 0 2.094.688 3.172.688 1.062 2.031 1.062.625 0 1.219-.265.594-.281 1.219-.86v2.72Z"/><text x="161.75" y="32.78" fill="#D9B8FF" font-family="Helvetica" font-size="17" textLength="71">resource</text><path d="M68.5 46.789h225" style="stroke:#000d19;stroke-width:.5"/><text x="78.5" y="68.784" fill="#D9B8FF" font-family="sans-serif" font-size="14" font-weight="bold" textLength="29">age</text><text x="107.5" y="68.784" fill="#D9B8FF" font-family="sans-serif" font-size="14" textLength="66">: duration</text><text x="78.5" y="95.081" fill="#D9B8FF" font-family="sans-serif" font-size="14" font-weight="bold" textLength="43">atime</text><text x="121.5" y="95.081" fill="#D9B8FF" font-family="sans-serif" font-size="14" textLength="70">: datetime</text><text x="78.5" y="121.378" fill="#D9B8FF" font-family="sans-serif" font-size="14" font-weight="bold" textLength="43">ctime</text><text x="121.5" y="121.378" fill="#D9B8FF" font-family="sans-serif" font-size="14" textLength="70">: datetime</text><text x="78.5" y="147.675" fill="#D9B8FF" font-family="sans-serif" font-size="14" font-weight="bold" textLength="14">id</text><text x="92.5" y="147.675" fill="#D9B8FF" font-family="sans-serif" font-size="14" textLength="48">: string</text><text x="78.5" y="173.972" fill="#D9B8FF" font-family="sans-serif" font-size="14" font-weight="bold" textLength="33">kind</text><text x="111.5" y="173.972" fill="#D9B8FF" font-family="sans-serif" font-size="14" textLength="48">: string</text><text x="78.5" y="200.269" fill="#D9B8FF" font-family="sans-serif" font-size="14" font-weight="bold" textLength="90">last_access</text><text x="168.5" y="200.269" fill="#D9B8FF" font-family="sans-serif" font-size="14" textLength="66">: duration</text><text x="78.5" y="226.565" fill="#D9B8FF" font-family="sans-serif" font-size="14" font-weight="bold" textLength="90">last_update</text><text x="168.5" y="226.565" fill="#D9B8FF" font-family="sans-serif" font-size="14" textLength="66">: duration</text><text x="78.5" y="252.862" fill="#D9B8FF" font-family="sans-serif" font-size="14" font-weight="bold" textLength="48">mtime</text><text x="126.5" y="252.862" fill="#D9B8FF" font-family="sans-serif" font-size="14" textLength="70">: datetime</text><text x="78.5" y="279.159" fill="#D9B8FF" font-family="sans-serif" font-size="14" font-weight="bold" textLength="43">name</text><text x="121.5" y="279.159" fill="#D9B8FF" font-family="sans-serif" font-size="14" textLength="48">: string</text><text x="78.5" y="305.456" fill="#D9B8FF" font-family="sans-serif" font-size="14" font-weight="bold" textLength="34">tags</text><text x="112.5" y="305.456" fill="#D9B8FF" font-family="sans-serif" font-size="14" textLength="171">: dictionary[string, string]</text><path fill="none" d="M173.46 592.23c-5.29 71.23-8.84 180.41 7.54 273.48 3.15 17.88 8.28 36.45 14.15 54.16" style="stroke:#ffaf37;stroke-width:2"/><path fill="#FFAF37" d="m197 924.33.93-9.805-2.52 5.065-5.064-2.521L197 924.33z" style="stroke:#ffaf37;stroke-width:2"/><path fill="none" d="M181 338.65v99.66m-7-99.27 7-20 7 20h-14zM293.87 866.1c-6.86 17.26-14.22 35.81-21.34 53.74" style="stroke:#ffaf37;stroke-width:2"/><path fill="#FFAF37" d="m270.33 924.38 7.038-6.89-5.193 2.243-2.243-5.194.398 9.841z" style="stroke:#ffaf37;stroke-width:2"/><path fill="none" d="M230.6 610.58c17.5 33.29 36.94 70.26 53.53 101.81m-60.18-98.43L220.83 593l15.51 14.45-12.39 6.51z" style="stroke:#ffaf37;stroke-width:2"/></svg>
